X: 20542
M: C|
L: 1/8
K: D
fg |\
afaf d2fd | ecec A2GF | GABc defg | ecAc e2fg |\
afaf d2fd | ecec A2GF | Ggbg fedc | d2d2 d2 :|
|: de |\
fdec B2ga | b2e2 e2cd | ecdB A2fg | a2d2 d2A2 |\


